X:1
T:Dichterliebe
T:Dichterliebe
T:(Summer Rain)
T:Robert Schumann
C:Robert Schumann
%%score { 1 | 2 }
L:1/8
M:4/4
K:Gb
V:1 treble nm="Piano" snm="Pno."
V:2 bass 
V:1
 z[Q:1/4=90]"^\n"!mp!"^A♭m9/C♭\n\n" b- | b2- b/a/f'/e'/"^B♭7\n\n" =d'2- d'/a/c'/b/- | %2
"^A♭m9/C♭\n\n" b2- b/a/f'/e'/"^B♭7\n\n" =d'2- d'/a/c'/b/- | %3
"^A♭m9/C♭\n\n" b2 a/c'/"^A♭m7\n\n"e/"^D♭\n\n"[cf]/"^G♭\n\n" [Bg]>B d/g/c'/b/- | %4
"^A♭m9/C♭\n\n" b2!>(! a/c'/"^A♭m7\n\n"e/"^D♭\n\n"[cf]/"^G♭\n\n" [Bg]>"^G♭11\n\n"C!p!"^G♭\n\n" !fermata!B,2!>)! |] %5
V:2
 z2 | C,/=G,/A,/C/ E2 B,,/A,/B,/=D/ F2 | C,/=G,/A,/C/ E2 B,,/A,/B,/=D/ F2 | %3
 C,/A,/C/E/- EA,,/D,/ G,,/D,/G,/B,/- B,2 | C,/A,/C/E/- EA,,/D,/ G,,/D,/G, !fermata![G,,D,G,]2 |] %5

